X: 765
T: The Miller of Glanmire.
C:G. West.
B:O'Neill's Music of Ireland
N:O'Neill's - 765
Z:Transcribed by Stephen Foy (shf@access.digex.net)
Z:abc 1.6
Z:Oranment (~) is a turn.
M:6/8
R:Jig
K:Am
EAA EAA|~B3 G2 A|Bee edB|de^f gag|\
eaa age|dBG G2 A|Bee dB^G|BAA A2:|
||eaa age|dBG G2 A|Bee edB|de^f gag|\
eaa age|dBG G2 A|Bee dB^G|BAA A2:|


